src/components/Reject/assets/reject.svg

<svg width="48" height="48" viewBox="0 0 48 48" fill="none" xmlns="http://www.w3.org/2000/svg">
<path d="M48 24C48 10.7452 37.2548 0 24 0C10.7452 0 0 10.7452 0 24C0 37.2548 10.7452 48 24 48C37.2548 48 48 37.2548 48 24Z" fill="#F54E4E"/>
<path fill-rule="evenodd" clip-rule="evenodd" d="M17.648 32.048L23.9996 25.6964L30.3512 32.048L32.048 30.3512L25.6964 23.9996L32.048 17.648L30.3512 15.9512L23.9996 22.3028L17.648 15.9512L15.9512 17.648L22.3028 23.9996L15.9512 30.3512L17.648 32.048Z" fill="white"/>
</svg>

<svg width="48" height="48" fill="none" xmlns="http://www.w3.org/2000/svg">
  <path d="M48 24C48 10.745 37.255 0 24 0S0 10.745 0 24s10.745 24 24 24 24-10.745 24-24Z" fill="#F54E4E"/>
  <path fill-rule="evenodd" clip-rule="evenodd" d="M17.648 32.048 24 25.696l6.351 6.352 1.697-1.697L25.696 24l6.352-6.352-1.697-1.697L24 22.303l-6.352-6.352-1.697 1.697L22.303 24 15.95 30.35l1.697 1.697Z" fill="#fff"/>
</svg>
